frontend/images/icons/harddisk.svg

<?xml version="1.0" encoding="UTF-8"?>
<svg width="55px" height="32px" viewBox="0 0 55 32" version="1.1" xmlns="http://www.w3.org/2000/svg" xmlns:xlink="http://www.w3.org/1999/xlink">
    <title>disk</title>
    <defs>
        <linearGradient x1="8.80371966%" y1="50%" x2="62.7727056%" y2="60.736755%" id="linearGradient-1">
            <stop stop-color="#E0E5EB" offset="0%"></stop>
            <stop stop-color="#FFFFFF" offset="8.17034528%"></stop>
            <stop stop-color="#E3E8EE" stop-opacity="0.985919713" offset="18.2173295%"></stop>
            <stop stop-color="#DADADA" offset="100%"></stop>
        </linearGradient>
        <linearGradient x1="91.2504242%" y1="49.5334401%" x2="70.0220424%" y2="54.0735557%" id="linearGradient-2">
            <stop stop-color="#FFCD9F" stop-opacity="0.575256774" offset="0%"></stop>
            <stop stop-color="#E3C1A2" stop-opacity="0.606611958" offset="6.89740983%"></stop>
            <stop stop-color="#B3ADA7" stop-opacity="0.659760419" offset="18.588833%"></stop>
            <stop stop-color="#FFFFFF" stop-opacity="0" offset="100%"></stop>
        </linearGradient>
        <path d="M13.8724225,0 L40.9923773,0 C42.7167906,0 44.4252187,0.641956554 44.8082583,1.4338501 L54.1712452,20.7908264 C54.4066235,21.2774459 54.8647998,23.3488639 54.8647998,24.490538 C54.8647998,24.9112758 54.8647998,25.2224579 54.8647998,25.4240842 L1.55913223,24.8630776 C1.07557723,24.8630776 0.555866489,24.7388978 0,24.490538 C0,24.1909742 0,23.9841626 0,23.870103 C0,22.8416064 0.459852256,21.273981 0.693554585,20.7908264 L10.0565415,1.4338501 C10.4395811,0.641956554 12.1480092,0 13.8724225,0 Z" id="path-3"></path>
        <linearGradient x1="50%" y1="0%" x2="50%" y2="100%" id="linearGradient-4">
            <stop stop-color="#3A291E" offset="0%"></stop>
            <stop stop-color="#652A0F" offset="100%"></stop>
        </linearGradient>
        <linearGradient x1="50%" y1="45.8647212%" x2="60.2051256%" y2="52.4019516%" id="linearGradient-5">
            <stop stop-color="#FFFFFF" offset="0%"></stop>
            <stop stop-color="#FED7B7" offset="100%"></stop>
        </linearGradient>
        <filter x="-266.1%" y="-66.5%" width="632.2%" height="233.1%" filterUnits="objectBoundingBox" id="filter-6">
            <feGaussianBlur stdDeviation="1" in="SourceGraphic"></feGaussianBlur>
        </filter>
        <filter x="-266.1%" y="-66.5%" width="632.2%" height="233.1%" filterUnits="objectBoundingBox" id="filter-7">
            <feGaussianBlur stdDeviation="1" in="SourceGraphic"></feGaussianBlur>
        </filter>
        <filter x="-266.1%" y="-66.5%" width="632.2%" height="233.1%" filterUnits="objectBoundingBox" id="filter-8">
            <feGaussianBlur stdDeviation="1" in="SourceGraphic"></feGaussianBlur>
        </filter>
        <radialGradient cx="50%" cy="100%" fx="50%" fy="100%" r="400%" gradientTransform="translate(0.500000,1.000000),scale(1.000000,0.250000),rotate(-90.000000),translate(-0.500000,-1.000000)" id="radialGradient-9">
            <stop stop-color="#ABFF73" offset="0%"></stop>
            <stop stop-color="#63F720" offset="55.0726617%"></stop>
            <stop stop-color="#50C72E" offset="100%"></stop>
        </radialGradient>
        <linearGradient x1="50%" y1="0%" x2="50%" y2="100%" id="linearGradient-10">
            <stop stop-color="#FFFFFF" stop-opacity="0" offset="0%"></stop>
            <stop stop-color="#FFFFFF" offset="100%"></stop>
        </linearGradient>
        <rect id="path-11" x="0" y="0" width="1.1273589" height="4.5094356" rx="0.56367945"></rect>
        <filter x="-13.3%" y="-3.3%" width="126.6%" height="106.7%" filterUnits="objectBoundingBox" id="filter-12">
            <feOffset dx="0.1" dy="0.3" in="SourceAlpha" result="shadowOffsetInner1"></feOffset>
            <feComposite in="shadowOffsetInner1" in2="SourceAlpha" operator="arithmetic" k2="-1" k3="1" result="shadowInnerInner1"></feComposite>
            <feColorMatrix values="0 0 0 0 0.167606138   0 0 0 0 0.299365942   0 0 0 0 0.207024663  0 0 0 1 0" type="matrix" in="shadowInnerInner1"></feColorMatrix>
        </filter>
        <rect id="path-13" x="3.3820767" y="0" width="1.1273589" height="4.5094356" rx="0.56367945"></rect>
        <filter x="-13.3%" y="-3.3%" width="126.6%" height="106.7%" filterUnits="objectBoundingBox" id="filter-14">
            <feOffset dx="0.1" dy="0.3" in="SourceAlpha" result="shadowOffsetInner1"></feOffset>
            <feComposite in="shadowOffsetInner1" in2="SourceAlpha" operator="arithmetic" k2="-1" k3="1" result="shadowInnerInner1"></feComposite>
            <feColorMatrix values="0 0 0 0 0.167606138   0 0 0 0 0.299365942   0 0 0 0 0.207024663  0 0 0 1 0" type="matrix" in="shadowInnerInner1"></feColorMatrix>
        </filter>
        <rect id="path-15" x="6.7641534" y="0" width="1.1273589" height="4.5094356" rx="0.56367945"></rect>
        <filter x="-13.3%" y="-3.3%" width="126.6%" height="106.7%" filterUnits="objectBoundingBox" id="filter-16">
            <feOffset dx="0.1" dy="0.3" in="SourceAlpha" result="shadowOffsetInner1"></feOffset>
            <feComposite in="shadowOffsetInner1" in2="SourceAlpha" operator="arithmetic" k2="-1" k3="1" result="shadowInnerInner1"></feComposite>
            <feColorMatrix values="0 0 0 0 0.167606138   0 0 0 0 0.299365942   0 0 0 0 0.207024663  0 0 0 1 0" type="matrix" in="shadowInnerInner1"></feColorMatrix>
        </filter>
    </defs>
    <g id="2025" stroke="none" stroke-width="1" fill="none" fill-rule="evenodd">
        <g id="画板备份-2" transform="translate(-519.000000, -506.000000)">
            <g id="编组-33" transform="translate(519.000000, 506.000000)">
                <g id="矩形">
                    <use fill="url(#linearGradient-1)" xlink:href="#path-3"></use>
                    <use fill="url(#linearGradient-2)" xlink:href="#path-3"></use>
                </g>
                <path d="M48.8647998,20.2248384 C50.4526185,20.2248384 51.8901185,20.8684291 52.9306638,21.9089744 C53.9712091,22.9495197 54.6147998,24.3870197 54.6147998,25.9748384 C54.6147998,27.5737578 53.9723397,29.0166756 52.9330456,30.060328 C51.8923578,31.10538 50.4538554,31.75 48.8647998,31.75 L48.8647998,31.75 L6,31.75 C4.41218134,31.75 2.97468134,31.1064093 1.93413601,30.065864 C0.893590672,29.0253187 0.25,27.5878187 0.25,26 C0.25,24.4010806 0.892460148,22.9581628 1.93175421,21.9145104 C2.97244199,20.8694584 4.4109444,20.2248384 6,20.2248384 L6,20.2248384 Z" id="矩形" stroke="url(#linearGradient-5)" stroke-width="0.5" fill="url(#linearGradient-4)"></path>
                <g id="编组-35" transform="translate(5.261008, 24.484274)">
                    <rect id="矩形" fill="#39FF00" filter="url(#filter-6)" x="0" y="0" width="1.1273589" height="4.5094356" rx="0.56367945"></rect>
                    <rect id="矩形备份-11" fill="#39FF00" filter="url(#filter-7)" x="3.3820767" y="0" width="1.1273589" height="4.5094356" rx="0.56367945"></rect>
                    <rect id="矩形备份-13" fill="#39FF00" filter="url(#filter-8)" x="6.7641534" y="0" width="1.1273589" height="4.5094356" rx="0.56367945"></rect>
                    <g id="矩形">
                        <use fill="url(#radialGradient-9)" fill-rule="evenodd" xlink:href="#path-11"></use>
                        <use fill="black" fill-opacity="1" filter="url(#filter-12)" xlink:href="#path-11"></use>
                        <rect stroke="url(#linearGradient-10)" stroke-width="0.1" stroke-linejoin="square" x="0.05" y="0.05" width="1.0273589" height="4.4094356" rx="0.51367945"></rect>
                    </g>
                    <g id="矩形备份-12">
                        <use fill="url(#radialGradient-9)" fill-rule="evenodd" xlink:href="#path-13"></use>
                        <use fill="black" fill-opacity="1" filter="url(#filter-14)" xlink:href="#path-13"></use>
                        <rect stroke="url(#linearGradient-10)" stroke-width="0.1" stroke-linejoin="square" x="3.4320767" y="0.05" width="1.0273589" height="4.4094356" rx="0.51367945"></rect>
                    </g>
                    <g id="矩形备份-14">
                        <use fill="url(#radialGradient-9)" fill-rule="evenodd" xlink:href="#path-15"></use>
                        <use fill="black" fill-opacity="1" filter="url(#filter-16)" xlink:href="#path-15"></use>
                        <rect stroke="url(#linearGradient-10)" stroke-width="0.1" stroke-linejoin="square" x="6.8141534" y="0.05" width="1.0273589" height="4.4094356" rx="0.51367945"></rect>
                    </g>
                </g>
            </g>
        </g>
    </g>
</svg>

<svg xmlns="http://www.w3.org/2000/svg" xmlns:xlink="http://www.w3.org/1999/xlink" width="55" height="32"><defs><filter id="f" width="632.2%" height="233.1%" x="-266.1%" y="-66.5%" filterUnits="objectBoundingBox"><feGaussianBlur in="SourceGraphic" stdDeviation="1"/></filter><filter id="g" width="632.2%" height="233.1%" x="-266.1%" y="-66.5%" filterUnits="objectBoundingBox"><feGaussianBlur in="SourceGraphic" stdDeviation="1"/></filter><filter id="h" width="632.2%" height="233.1%" x="-266.1%" y="-66.5%" filterUnits="objectBoundingBox"><feGaussianBlur in="SourceGraphic" stdDeviation="1"/></filter><filter id="k" width="126.6%" height="106.7%" x="-13.3%" y="-3.3%" filterUnits="objectBoundingBox"><feOffset dx=".1" dy=".3" in="SourceAlpha" result="shadowOffsetInner1"/><feComposite in="shadowOffsetInner1" in2="SourceAlpha" k2="-1" k3="1" operator="arithmetic" result="shadowInnerInner1"/><feColorMatrix in="shadowInnerInner1" values="0 0 0 0 0.167606138 0 0 0 0 0.299365942 0 0 0 0 0.207024663 0 0 0 1 0"/></filter><filter id="n" width="126.6%" height="106.7%" x="-13.3%" y="-3.3%" filterUnits="objectBoundingBox"><feOffset dx=".1" dy=".3" in="SourceAlpha" result="shadowOffsetInner1"/><feComposite in="shadowOffsetInner1" in2="SourceAlpha" k2="-1" k3="1" operator="arithmetic" result="shadowInnerInner1"/><feColorMatrix in="shadowInnerInner1" values="0 0 0 0 0.167606138 0 0 0 0 0.299365942 0 0 0 0 0.207024663 0 0 0 1 0"/></filter><filter id="p" width="126.6%" height="106.7%" x="-13.3%" y="-3.3%" filterUnits="objectBoundingBox"><feOffset dx=".1" dy=".3" in="SourceAlpha" result="shadowOffsetInner1"/><feComposite in="shadowOffsetInner1" in2="SourceAlpha" k2="-1" k3="1" operator="arithmetic" result="shadowInnerInner1"/><feColorMatrix in="shadowInnerInner1" values="0 0 0 0 0.167606138 0 0 0 0 0.299365942 0 0 0 0 0.207024663 0 0 0 1 0"/></filter><linearGradient id="a" x1="8.804%" x2="62.773%" y1="50%" y2="60.737%"><stop offset="0%" stop-color="#E0E5EB"/><stop offset="8.17%" stop-color="#FFF"/><stop offset="18.217%" stop-color="#E3E8EE" stop-opacity=".986"/><stop offset="100%" stop-color="#DADADA"/></linearGradient><linearGradient id="c" x1="91.25%" x2="70.022%" y1="49.533%" y2="54.074%"><stop offset="0%" stop-color="#FFCD9F" stop-opacity=".575"/><stop offset="6.897%" stop-color="#E3C1A2" stop-opacity=".607"/><stop offset="18.589%" stop-color="#B3ADA7" stop-opacity=".66"/><stop offset="100%" stop-color="#FFF" stop-opacity="0"/></linearGradient><linearGradient id="e" x1="50%" x2="50%" y1="0%" y2="100%"><stop offset="0%" stop-color="#3A291E"/><stop offset="100%" stop-color="#652A0F"/></linearGradient><linearGradient id="d" x1="50%" x2="60.205%" y1="45.865%" y2="52.402%"><stop offset="0%" stop-color="#FFF"/><stop offset="100%" stop-color="#FED7B7"/></linearGradient><linearGradient id="l" x1="50%" x2="50%" y1="0%" y2="100%"><stop offset="0%" stop-color="#FFF" stop-opacity="0"/><stop offset="100%" stop-color="#FFF"/></linearGradient><rect id="j" width="1.127" height="4.509" x="0" y="0" rx=".564"/><rect id="m" width="1.127" height="4.509" x="3.382" y="0" rx=".564"/><rect id="o" width="1.127" height="4.509" x="6.764" y="0" rx=".564"/><radialGradient id="i" cx="50%" cy="100%" r="400%" fx="50%" fy="100%" gradientTransform="matrix(0 -.25 1 0 -.5 1.125)"><stop offset="0%" stop-color="#ABFF73"/><stop offset="55.073%" stop-color="#63F720"/><stop offset="100%" stop-color="#50C72E"/></radialGradient><path id="b" d="M13.872 0h27.12c1.725 0 3.433.642 3.816 1.434l9.363 19.357c.236.486.694 2.558.694 3.7v.933l-53.306-.56c-.483 0-1.003-.125-1.559-.373v-.62c0-1.03.46-2.597.694-3.08l9.363-19.357C10.44.642 12.148 0 13.872 0Z"/></defs><g fill="none" fill-rule="evenodd"><g><use xlink:href="#b" fill="url(#a)"/><use xlink:href="#b" fill="url(#c)"/></g><path fill="url(#e)" stroke="url(#d)" stroke-width=".5" d="M48.865 20.225c1.588 0 3.025.643 4.066 1.684a5.732 5.732 0 0 1 1.684 4.066 5.767 5.767 0 0 1-1.682 4.085 5.722 5.722 0 0 1-4.068 1.69H6a5.732 5.732 0 0 1-4.066-1.684A5.732 5.732 0 0 1 .25 26c0-1.599.642-3.042 1.682-4.085A5.722 5.722 0 0 1 6 20.225Z"/><g transform="translate(5.261 24.484)"><rect width="1.127" height="4.509" fill="#39FF00" filter="url(#f)" rx=".564"/><rect width="1.127" height="4.509" x="3.382" fill="#39FF00" filter="url(#g)" rx=".564"/><rect width="1.127" height="4.509" x="6.764" fill="#39FF00" filter="url(#h)" rx=".564"/><use xlink:href="#j" fill="url(#i)"/><use xlink:href="#j" fill="#000" filter="url(#k)"/><rect width="1.027" height="4.409" x=".05" y=".05" stroke="url(#l)" stroke-linejoin="square" stroke-width=".1" rx=".514"/><use xlink:href="#m" fill="url(#i)"/><use xlink:href="#m" fill="#000" filter="url(#n)"/><rect width="1.027" height="4.409" x="3.432" y=".05" stroke="url(#l)" stroke-linejoin="square" stroke-width=".1" rx=".514"/><use xlink:href="#o" fill="url(#i)"/><use xlink:href="#o" fill="#000" filter="url(#p)"/><rect width="1.027" height="4.409" x="6.814" y=".05" stroke="url(#l)" stroke-linejoin="square" stroke-width=".1" rx=".514"/></g></g></svg>
